src/assets/filled/MoneyRecive.svg

<?xml version="1.0" encoding="UTF-8"?>
<svg width="24" height="24" viewBox="0 0 24 24" xmlns="http://www.w3.org/2000/svg">
 <path d="m18.81 6.25h1.36c-0.19-0.27-0.39-0.52-0.6-0.77l-0.76 0.77z"/>
 <path d="m18.52 4.42c-0.25-0.21-0.5-0.41-0.77-0.6v1.36l0.77-0.76z"/>
 <path d="m19.58 5.48 2.95-2.95c0.29-0.29 0.29-0.77 0-1.06s-0.77-0.29-1.06 0l-2.95 2.95c0.38 0.33 0.73 0.69 1.06 1.06z"/>
 <path d="m17.75 3c0-0.41-0.34-0.75-0.75-0.75-0.4 0-0.72 0.32-0.74 0.71 0.52 0.25 1.02 0.53 1.49 0.86v-0.82z"/>
 <path d="m21.75 7c0-0.41-0.34-0.75-0.75-0.75h-0.83c0.33 0.47 0.62 0.97 0.86 1.49 0.4-0.02 0.72-0.34 0.72-0.74z"/>
 <path d="m12.75 14.75h0.3c0.39 0 0.7-0.35 0.7-0.78 0-0.54-0.15-0.62-0.49-0.74l-0.51-0.18v1.7z"/>
 <path d="m21.04 7.74c-0.01 0-0.02 0.01-0.04 0.01h-4c-0.1 0-0.19-0.02-0.29-0.06-0.18-0.08-0.33-0.22-0.41-0.41-0.03-0.09-0.05-0.18-0.05-0.28v-4c0-0.01 0.01-0.02 0.01-0.04-1.3-0.61-2.74-0.96-4.26-0.96-5.52 0-10 4.48-10 10s4.48 10 10 10 10-4.48 10-10c0-1.52-0.35-2.96-0.96-4.26zm-7.29 4.08c0.64 0.22 1.5 0.69 1.5 2.16 0 1.25-0.99 2.28-2.2 2.28h-0.3v0.25c0 0.41-0.34 0.75-0.75 0.75s-0.75-0.34-0.75-0.75v-0.25h-0.08c-1.33 0-2.42-1.12-2.42-2.5 0-0.42 0.34-0.76 0.75-0.76s0.75 0.34 0.75 0.75c0 0.55 0.41 1 0.92 1h0.08v-2.22l-1-0.35c-0.64-0.22-1.5-0.69-1.5-2.16 0-1.25 0.99-2.28 2.2-2.28h0.3v-0.24c0-0.41 0.34-0.75 0.75-0.75s0.75 0.34 0.75 0.75v0.25h0.08c1.33 0 2.42 1.12 2.42 2.5 0 0.41-0.34 0.75-0.75 0.75s-0.75-0.34-0.75-0.75c0-0.55-0.41-1-0.92-1h-0.08v2.22l1 0.35z"/>
 <path d="m10.25 10.03c0 0.54 0.15 0.62 0.49 0.74l0.51 0.18v-1.7h-0.3c-0.38 0-0.7 0.35-0.7 0.78z"/>
</svg>

<svg width="24" height="24" viewBox="0 0 24 24"  xmlns="http://www.w3.org/2000/svg">
<path d="M18.8101 6.24998H20.1701C19.9801 5.97998 19.7801 5.72998 19.5701 5.47998L18.8101 6.24998Z" />
<path d="M18.52 4.42001C18.27 4.21001 18.02 4.01001 17.75 3.82001V5.18001L18.52 4.42001Z" />
<path d="M19.58 5.48L22.53 2.53C22.82 2.24 22.82 1.76 22.53 1.47C22.24 1.18 21.76 1.18 21.47 1.47L18.52 4.42C18.9 4.75 19.25 5.11 19.58 5.48Z" />
<path d="M17.75 3C17.75 2.59 17.41 2.25 17 2.25C16.6 2.25 16.28 2.57 16.26 2.96C16.78 3.21 17.28 3.49 17.75 3.82V3Z" />
<path d="M21.7499 7C21.7499 6.59 21.4099 6.25 20.9999 6.25H20.1699C20.4999 6.72 20.7899 7.22 21.0299 7.74C21.4299 7.72 21.7499 7.4 21.7499 7Z" />
<path d="M12.75 14.75H13.05C13.44 14.75 13.75 14.4 13.75 13.97C13.75 13.43 13.6 13.35 13.26 13.23L12.75 13.05V14.75Z" />
<path d="M21.04 7.74C21.03 7.74 21.02 7.75 21 7.75H17C16.9 7.75 16.81 7.73 16.71 7.69C16.53 7.61 16.38 7.47 16.3 7.28C16.27 7.19 16.25 7.1 16.25 7V3C16.25 2.99 16.26 2.98 16.26 2.96C14.96 2.35 13.52 2 12 2C6.48 2 2 6.48 2 12C2 17.52 6.48 22 12 22C17.52 22 22 17.52 22 12C22 10.48 21.65 9.04 21.04 7.74ZM13.75 11.82C14.39 12.04 15.25 12.51 15.25 13.98C15.25 15.23 14.26 16.26 13.05 16.26H12.75V16.51C12.75 16.92 12.41 17.26 12 17.26C11.59 17.26 11.25 16.92 11.25 16.51V16.26H11.17C9.84 16.26 8.75 15.14 8.75 13.76C8.75 13.34 9.09 13 9.5 13C9.91 13 10.25 13.34 10.25 13.75C10.25 14.3 10.66 14.75 11.17 14.75H11.25V12.53L10.25 12.18C9.61 11.96 8.75 11.49 8.75 10.02C8.75 8.77 9.74 7.74 10.95 7.74H11.25V7.5C11.25 7.09 11.59 6.75 12 6.75C12.41 6.75 12.75 7.09 12.75 7.5V7.75H12.83C14.16 7.75 15.25 8.87 15.25 10.25C15.25 10.66 14.91 11 14.5 11C14.09 11 13.75 10.66 13.75 10.25C13.75 9.7 13.34 9.25 12.83 9.25H12.75V11.47L13.75 11.82Z" />
<path d="M10.25 10.03C10.25 10.57 10.4 10.65 10.74 10.77L11.25 10.95V9.25H10.95C10.57 9.25 10.25 9.6 10.25 10.03Z" />
</svg>
